X: 20612
T: FOLLY AS IT FLIES
C:
%R: hornpipe, reel
B: Elias Howe "The Musician's Companion" 1843 p.61 #2
S: http://imslp.org/wiki/The_Musician's_Companion_(Howe,_Elias)
Z: 2015 John Chambers <jc:trillian.mit.edu>
M: C|
L: 1/8
K: Bb
% - - - - - - - - - - - - - - - - - - - - - - - - -
F2 |\
B2dB fdbg | g2f2 f2fd | cdef gecB | BAcA F3F |\
FGAB cdef | g2f2 f2e2 | edcB dcBA | B2B2 B2 :|
|: f2 |\
bagf edcB | g2f2 f2fd | cdef gfdB | BAcA F3F |\
BFcF dFcF | BFcF dFcF | Bdfb fedc | B2B2 B2 :|
% - - - - - - - - - - - - - - - - - - - - - - - - -
